templates/main/source/svg/icons/auth.svg

<svg xmlns="http://www.w3.org/2000/svg" width=".6cm" height=".67cm"><path fill-rule="evenodd" fill="#FFF" d="M16.996 18.81c0 .163-.081.215-.245.181a2.05 2.05 0 0 0-.392-.037 93.4 93.4 0 0 0-1.588-.003c-.317.002-.634.019-.951.026-.144.004-.289 0-.433.002l-1.136.017a8.465 8.465 0 0 1-.276.002c-.53-.006-1.059-.015-1.589-.019-.326-.002-.652.006-.978.006l-9.041.001H.245c-.19-.005-.237-.044-.239-.23-.003-.42-.001-.841-.001-1.262H.004c0-.347-.008-.696.002-1.043.022-.761.281-1.439.737-2.06a5.81 5.81 0 0 1 1.385-1.329 7.308 7.308 0 0 1 1.704-.888c.362-.132.722-.275 1.095-.37.479-.121.965-.228 1.455-.289a23.81 23.81 0 0 1 1.812-.137c.928-.046 1.845.067 2.757.225.248.043.504.055.747.116.44.111.884.221 1.305.383.46.177.908.39 1.339.626.679.372 1.29.844 1.76 1.448.257.331.427.728.613 1.106.106.214.166.45.243.677.014.041.015.088.016.132.009.645.019 1.29.026 1.935.002.261-.003.523-.004.784zm-1.351-2.121c-.029-.36.002-.726-.175-1.069-.189-.365-.413-.701-.725-.973-.188-.164-.399-.303-.602-.451a6.07 6.07 0 0 0-1.352-.743 17.98 17.98 0 0 0-1.138-.394 5.046 5.046 0 0 0-.798-.203 19.67 19.67 0 0 0-1.476-.151 12.93 12.93 0 0 0-3.664.27 8.61 8.61 0 0 0-1.607.509c-.826.362-1.585.828-2.151 1.539-.355.446-.589.934-.576 1.513.007.291.004.583-.001.875-.004.228-.005.231.234.231h13.432c.127 0 .255-.005.382.002.161.008.231-.051.224-.215-.01-.247.013-.495-.007-.74zM12.777 7.67c-.242.621-.472 1.251-.947 1.762-.34.366-.754.628-1.204.829a7.762 7.762 0 0 1-1.237.428c-.28.07-.584.049-.878.069-.595.035-1.17-.08-1.718-.271a3.818 3.818 0 0 1-2.005-1.579 5.123 5.123 0 0 1-.666-1.593 7.984 7.984 0 0 1-.187-2.338l.029-.487a6.16 6.16 0 0 1 .428-1.874 4.17 4.17 0 0 1 1.034-1.532A3.802 3.802 0 0 1 6.802.266 5.09 5.09 0 0 1 8.607 0a5.432 5.432 0 0 1 1.497.236c.612.19 1.127.513 1.572.944.467.454.779 1.003 1 1.609.362.99.446 2.012.399 3.045-.028.62-.069 1.249-.298 1.836zm-1.554-4.833a2.525 2.525 0 0 0-1.616-1.371 3.808 3.808 0 0 0-2.002-.048c-.687.162-1.239.501-1.629 1.078-.414.612-.585 1.305-.657 2.014-.105 1.044-.065 2.084.315 3.085.157.413.381.786.713 1.099.572.538 1.288.703 2.042.751.278.018.562-.048.842-.083.588-.073 1.092-.338 1.511-.722.418-.384.64-.879.763-1.436.137-.613.224-1.223.19-1.857.049-.867-.087-1.71-.472-2.51z"/></svg>

<svg
 xmlns="http://www.w3.org/2000/svg"
 xmlns:xlink="http://www.w3.org/1999/xlink"
 width="0.6cm" height="0.67cm">
<path fill-rule="evenodd"  fill="rgb(255, 255, 255)"
 d="M16.996,18.810 C16.996,18.973 16.915,19.025 16.751,18.991 C16.624,18.965 16.490,18.955 16.359,18.954 C15.830,18.949 15.300,18.947 14.771,18.951 C14.454,18.953 14.137,18.970 13.820,18.977 C13.676,18.981 13.531,18.977 13.387,18.979 C13.009,18.984 12.630,18.990 12.251,18.996 C12.159,18.998 12.067,18.999 11.975,18.998 C11.445,18.992 10.916,18.983 10.386,18.979 C10.060,18.977 9.734,18.985 9.408,18.985 C6.394,18.986 3.381,18.986 0.367,18.986 C0.326,18.986 0.286,18.987 0.245,18.986 C0.055,18.981 0.008,18.942 0.006,18.756 C0.003,18.336 0.005,17.915 0.005,17.494 L0.004,17.494 C0.004,17.147 -0.004,16.798 0.006,16.451 C0.028,15.690 0.287,15.012 0.743,14.391 C1.127,13.866 1.596,13.434 2.128,13.062 C2.655,12.694 3.223,12.394 3.832,12.174 C4.194,12.042 4.554,11.899 4.927,11.804 C5.406,11.683 5.892,11.576 6.382,11.515 C6.982,11.440 7.589,11.407 8.194,11.378 C9.122,11.332 10.039,11.445 10.951,11.603 C11.199,11.646 11.455,11.658 11.698,11.719 C12.138,11.830 12.582,11.940 13.003,12.102 C13.463,12.279 13.911,12.492 14.342,12.728 C15.021,13.100 15.632,13.572 16.102,14.176 C16.359,14.507 16.529,14.904 16.715,15.282 C16.821,15.496 16.881,15.732 16.958,15.959 C16.972,16.000 16.973,16.047 16.974,16.091 C16.983,16.736 16.993,17.381 17.000,18.026 C17.002,18.287 16.997,18.549 16.996,18.810 ZM15.645,16.689 C15.616,16.329 15.647,15.963 15.470,15.620 C15.281,15.255 15.057,14.919 14.745,14.647 C14.557,14.483 14.346,14.344 14.143,14.196 C13.725,13.891 13.274,13.644 12.791,13.453 C12.418,13.307 12.036,13.180 11.653,13.059 C11.391,12.976 11.126,12.895 10.855,12.856 C10.366,12.788 9.873,12.736 9.379,12.705 C8.146,12.625 6.925,12.706 5.715,12.975 C5.161,13.098 4.622,13.258 4.108,13.484 C3.282,13.846 2.523,14.312 1.957,15.023 C1.602,15.469 1.368,15.957 1.381,16.536 C1.388,16.827 1.385,17.119 1.380,17.411 C1.376,17.639 1.375,17.642 1.614,17.642 C3.905,17.642 6.196,17.642 8.486,17.642 C10.673,17.642 12.859,17.642 15.046,17.642 C15.173,17.642 15.301,17.637 15.428,17.644 C15.589,17.652 15.659,17.593 15.652,17.429 C15.642,17.182 15.665,16.934 15.645,16.689 ZM12.777,7.670 C12.535,8.291 12.305,8.921 11.830,9.432 C11.490,9.798 11.076,10.060 10.626,10.261 C10.229,10.437 9.812,10.582 9.389,10.689 C9.109,10.759 8.805,10.738 8.511,10.758 C7.916,10.793 7.341,10.678 6.793,10.487 C5.942,10.191 5.273,9.661 4.788,8.908 C4.469,8.412 4.256,7.875 4.122,7.315 C3.937,6.549 3.890,5.764 3.935,4.977 C3.944,4.814 3.955,4.652 3.964,4.490 C4.002,3.843 4.157,3.222 4.392,2.616 C4.621,2.028 4.966,1.520 5.426,1.084 C5.819,0.711 6.284,0.449 6.802,0.266 C7.388,0.061 7.993,-0.013 8.607,0.000 C9.114,0.011 9.612,0.084 10.104,0.236 C10.716,0.426 11.231,0.749 11.676,1.180 C12.143,1.634 12.455,2.183 12.676,2.789 C13.038,3.779 13.122,4.801 13.075,5.834 C13.047,6.454 13.006,7.083 12.777,7.670 ZM11.223,2.837 C10.892,2.148 10.347,1.687 9.607,1.466 C8.950,1.269 8.279,1.258 7.605,1.418 C6.918,1.580 6.366,1.919 5.976,2.496 C5.562,3.108 5.391,3.801 5.319,4.510 C5.214,5.554 5.254,6.594 5.634,7.595 C5.791,8.008 6.015,8.381 6.347,8.694 C6.919,9.232 7.635,9.397 8.389,9.445 C8.667,9.463 8.951,9.397 9.231,9.362 C9.819,9.289 10.323,9.024 10.742,8.640 C11.160,8.256 11.382,7.761 11.505,7.204 C11.642,6.591 11.729,5.981 11.695,5.347 C11.744,4.480 11.608,3.637 11.223,2.837 Z"/>
</svg>
